X: 741
T: Mai bianshi
L: 1/8
M: 4/4
K: Bb
c'2f'2c' d' c' b [I:setbarnb 1]| 
c'2f'2c' d' c' b | 
f4f'2c' d' | 
c'> b g fg4 | 
ff2gf'2e' d' | 
c' c' f gc'4 | 
g f d fg2b g | 
f d c Bc4 | 
c' b c' f' c' d' c' b | 
g f d fg2b g | 
f d c Bc4 |]

@@@ Tune index: 9615
